toonz/sources/toonzqt/Resources/savepaletteas_on.svg

<?xml version="1.0" encoding="UTF-8" standalone="no"?><!DOCTYPE svg PUBLIC "-//W3C//DTD SVG 1.1//EN" "http://www.w3.org/Graphics/SVG/1.1/DTD/svg11.dtd"><svg width="100%" height="100%" viewBox="0 0 18 18" version="1.1" xmlns="http://www.w3.org/2000/svg" xmlns:xlink="http://www.w3.org/1999/xlink" xml:space="preserve" style="fill-rule:evenodd;clip-rule:evenodd;stroke-linejoin:round;stroke-miterlimit:1.41421;"><rect x="0" y="0" width="18" height="18" style="fill:none;"/><rect x="5" y="2" width="7" height="5" style="fill:#404040;"/><path d="M5,2l0,5l7,0l0,-5l1,0l2,2l0,12l-13,0l0,-14l3,0Zm2.8,3.75l-1.4,0l0,-2.5l1.4,0l0,2.5Z" style="fill:#fff;"/><rect x="4" y="10" width="9" height="6" style="fill:#bdbdbd;"/><path d="M3,16l0,-7l11,0l0,7l-1,0l0,-6l-9,0l0,6l-1,0Z" style="fill:#404040;"/><path d="M2,16l13,0l0,-12l-2,-2l-11,0l0,14Zm-1,-15l12.5,0l2.5,2.5l0,13.5l-15,0l0,-16Z" style="fill:#404040;"/><g><path d="M16,7.323l-10,6.414l1.263,1.263l8.737,-4l0,-3.677Z" style="fill:#303030;fill-opacity:0.34902;"/><path d="M8.314,10.323l-1.814,4.177l4.227,-2l-2.413,-2.177Z" style="fill:#404040;"/><path d="M8.352,10.324l0.065,0.004l0.032,0.004l0.032,0.005l0.032,0.006l0.032,0.007l0.032,0.008l0.031,0.009l0.031,0.01l0.03,0.011l0.03,0.012l0.03,0.013l0.029,0.014l0.029,0.015l0.028,0.016l0.056,0.034l0.052,0.038l0.026,0.021l0.048,0.042l0.024,0.023l1.414,1.414l0.023,0.024l0.042,0.048l0.021,0.026l0.038,0.052l0.034,0.056l0.016,0.028l0.015,0.029l0.014,0.029l0.013,0.03l0.012,0.03l0.011,0.03l0.01,0.031l0.009,0.031l0.008,0.032l0.007,0.032l0.006,0.032l0.005,0.032l0.004,0.032l0.004,0.065l0.001,0.032l0,0.033l-0.002,0.032l-0.002,0.032l-0.004,0.033l-0.004,0.032l-0.006,0.032l-0.006,0.032l-0.008,0.031l-0.009,0.031l-0.009,0.031l-0.011,0.031l-0.012,0.03l-0.012,0.03l-0.014,0.03l-0.014,0.029l-0.016,0.028l-0.016,0.028l-0.018,0.028l-0.018,0.027l-0.019,0.026l-0.02,0.026l-0.02,0.025l-0.022,0.024l-0.022,0.024l-0.023,0.022l-0.024,0.023l-0.025,0.021l-0.025,0.02l-0.025,0.02l-0.027,0.019l-0.027,0.018l-0.028,0.017l-0.028,0.016l-0.028,0.015l-0.029,0.015l-2.677,1.262l-0.03,0.014l-0.03,0.012l-0.031,0.012l-0.031,0.01l-0.031,0.01l-0.032,0.008l-0.032,0.008l-0.032,0.006l-0.032,0.005l-0.032,0.005l-0.033,0.003l-0.033,0.002l-0.032,0.001l-0.033,0l-0.033,-0.001l-0.032,-0.002l-0.033,-0.004l-0.032,-0.004l-0.033,-0.005l-0.032,-0.007l-0.031,-0.007l-0.032,-0.009l-0.031,-0.009l-0.031,-0.011l-0.031,-0.011l-0.03,-0.013l-0.03,-0.013l-0.029,-0.015l-0.029,-0.015l-0.028,-0.016l-0.028,-0.018l-0.027,-0.018l-0.027,-0.019l-0.026,-0.02l-0.025,-0.021l-0.025,-0.021l-0.023,-0.022l-0.024,-0.024l-0.022,-0.023l-0.021,-0.025l-0.021,-0.025l-0.02,-0.026l-0.019,-0.027l-0.018,-0.027l-0.018,-0.028l-0.016,-0.028l-0.015,-0.029l-0.015,-0.029l-0.013,-0.03l-0.013,-0.03l-0.011,-0.031l-0.011,-0.031l-0.009,-0.031l-0.009,-0.032l-0.007,-0.031l-0.007,-0.032l-0.005,-0.033l-0.004,-0.032l-0.004,-0.033l-0.002,-0.032l-0.001,-0.033l0,-0.033l0.001,-0.032l0.002,-0.033l0.003,-0.033l0.005,-0.032l0.005,-0.032l0.006,-0.032l0.008,-0.032l0.008,-0.032l0.01,-0.031l0.01,-0.031l0.012,-0.031l0.012,-0.03l0.014,-0.03l1.262,-2.677l0.015,-0.029l0.015,-0.028l0.016,-0.028l0.017,-0.028l0.018,-0.027l0.019,-0.027l0.02,-0.025l0.02,-0.025l0.021,-0.025l0.023,-0.024l0.022,-0.023l0.024,-0.022l0.024,-0.022l0.025,-0.02l0.026,-0.02l0.026,-0.019l0.027,-0.018l0.028,-0.018l0.028,-0.016l0.028,-0.016l0.029,-0.014l0.03,-0.014l0.03,-0.012l0.03,-0.012l0.031,-0.011l0.031,-0.009l0.031,-0.009l0.031,-0.008l0.032,-0.006l0.032,-0.006l0.032,-0.004l0.033,-0.004l0.032,-0.002l0.032,-0.002l0.033,0l0.032,0.001Zm-1.301,3.676l2.677,-1.263l-0.663,-0.663l0.079,-0.167l-0.167,0.079l-0.663,-0.663l-1.263,2.677Z" style="fill:#404040;"/><path d="M15.536,4.101l-7.222,7.222l1.414,1.414l7.222,-7.222l-1.414,-1.414Z" style="fill:#fff;"/><path d="M15.623,3.104l0.058,0.007l0.057,0.01l0.057,0.014l0.056,0.016l0.054,0.02l0.054,0.023l0.051,0.026l0.05,0.029l0.049,0.032l0.047,0.035l0.044,0.037l0.043,0.04l1.415,1.415l0.04,0.042l0.037,0.044l0.035,0.047l0.032,0.049l0.029,0.05l0.026,0.052l0.023,0.054l0.02,0.054l0.015,0.056l0.014,0.057l0.011,0.057l0.007,0.058l0.003,0.058l0,0.058l-0.003,0.058l-0.008,0.058l-0.01,0.057l-0.014,0.057l-0.015,0.055l-0.02,0.055l-0.023,0.053l-0.026,0.052l-0.029,0.051l-0.032,0.048l-0.035,0.047l-0.037,0.045l-0.04,0.042l-7.223,7.222l-0.042,0.04l-0.045,0.038l-0.047,0.034l-0.048,0.032l-0.05,0.03l-0.052,0.026l-0.054,0.023l-0.055,0.02l-0.055,0.016l-0.057,0.014l-0.057,0.01l-0.058,0.007l-0.058,0.003l-0.058,0l-0.058,-0.003l-0.058,-0.007l-0.057,-0.01l-0.057,-0.014l-0.056,-0.016l-0.054,-0.02l-0.054,-0.023l-0.052,-0.026l-0.05,-0.03l-0.049,-0.032l-0.046,-0.034l-0.045,-0.038l-0.042,-0.04l-1.414,-1.414l-0.04,-0.042l-0.038,-0.045l-0.034,-0.046l-0.032,-0.049l-0.03,-0.05l-0.026,-0.052l-0.023,-0.054l-0.02,-0.054l-0.016,-0.056l-0.014,-0.057l-0.01,-0.057l-0.007,-0.058l-0.003,-0.058l0,-0.058l0.003,-0.058l0.007,-0.058l0.01,-0.057l0.014,-0.057l0.016,-0.055l0.02,-0.055l0.023,-0.054l0.026,-0.052l0.03,-0.05l0.032,-0.048l0.034,-0.047l0.038,-0.045l0.04,-0.042l7.222,-7.223l0.042,-0.04l0.045,-0.037l0.047,-0.035l0.048,-0.032l0.051,-0.029l0.052,-0.026l0.053,-0.023l0.055,-0.02l0.055,-0.016l0.057,-0.014l0.057,-0.01l0.058,-0.007l0.058,-0.003l0.058,0l0.057,0.003l0.001,0Zm-7.309,8.219l1.414,1.414l7.222,-7.222l-1.414,-1.414l-7.222,7.222Z" style="fill:#404040;"/></g></svg>

<?xml version="1.0" encoding="UTF-8" standalone="no"?>
<svg
   xmlns:dc="http://purl.org/dc/elements/1.1/"
   xmlns:cc="http://creativecommons.org/ns#"
   xmlns:rdf="http://www.w3.org/1999/02/22-rdf-syntax-ns#"
   xmlns:svg="http://www.w3.org/2000/svg"
   xmlns="http://www.w3.org/2000/svg"
   width="100%"
   height="100%"
   viewBox="0 0 18 18"
   version="1.1"
   xml:space="preserve"
   style="fill-rule:evenodd;clip-rule:evenodd;stroke-linejoin:round;stroke-miterlimit:1.41421;"
   id="svg26"><metadata
     id="metadata32"><rdf:RDF><cc:Work
         rdf:about=""><dc:format>image/svg+xml</dc:format><dc:type
           rdf:resource="http://purl.org/dc/dcmitype/StillImage" /><dc:title></dc:title></cc:Work></rdf:RDF></metadata><defs
     id="defs30" /><path
     id="path855"
     d="M 3.0000001,3.0000004 V 15.000001 h 3 H 15 v -7.0000003 -3 L 13,3.0000004 H 6.0000001 Z"
     style="clip-rule:evenodd;opacity:1;fill:#e6e6e6;fill-opacity:1;fill-rule:evenodd;stroke:#303030;stroke-width:2;stroke-linecap:round;stroke-linejoin:miter;stroke-miterlimit:4;stroke-dasharray:none;stroke-opacity:1;paint-order:normal" /><rect
     style="clip-rule:evenodd;opacity:1;fill:#303030;fill-opacity:1;fill-rule:evenodd;stroke:none;stroke-width:2;stroke-linecap:round;stroke-linejoin:miter;stroke-miterlimit:4;stroke-dasharray:none;stroke-opacity:1;paint-order:normal"
     id="rect852"
     width="6"
     height="5"
     x="6"
     y="3" /><path
     style="clip-rule:evenodd;opacity:1;fill:#fbfbfb;fill-opacity:1;fill-rule:evenodd;stroke:none;stroke-width:2;stroke-linecap:round;stroke-linejoin:round;stroke-miterlimit:4;stroke-dasharray:none;stroke-opacity:1;paint-order:normal"
     d="M 3.0000001,3.0000004 V 15.000001 h 3 H 15 v -7.0000003 -3 L 13,3.0000004 H 12 V 8.0000007 H 6.0000001 V 3.0000004 Z m 4,0 v 3.0000003 h 2 V 3.0000004 Z"
     id="rect839" /><rect
     y="10"
     x="5.0000005"
     height="5"
     width="1"
     id="rect819"
     style="fill:#303030;fill-opacity:1;stroke:none;stroke-width:2;stroke-linecap:round;stroke-linejoin:round;stroke-miterlimit:4;stroke-dasharray:none;stroke-opacity:1;paint-order:normal" /><rect
     transform="rotate(90)"
     style="fill:#303030;fill-opacity:1;stroke:none;stroke-width:2;stroke-linecap:round;stroke-linejoin:round;stroke-miterlimit:4;stroke-dasharray:none;stroke-opacity:1;paint-order:normal"
     id="rect821"
     width="1"
     height="6"
     x="10"
     y="-12" /><g
     id="g24"
     transform="translate(0,-1)"><path
       d="M 16,7.323 6,13.737 7.263,15 16,11 Z"
       style="fill:#303030;fill-opacity:0.34902003"
       id="path14" /><path
       d="M 8.314,10.323 6.5,14.5 l 4.227,-2 z"
       style="fill:#404040"
       id="path16" /><path
       d="m 8.352,10.324 0.065,0.004 0.032,0.004 0.032,0.005 0.032,0.006 0.032,0.007 0.032,0.008 0.031,0.009 0.031,0.01 0.03,0.011 0.03,0.012 0.03,0.013 0.029,0.014 0.029,0.015 0.028,0.016 0.056,0.034 0.052,0.038 0.026,0.021 0.048,0.042 0.024,0.023 1.414,1.414 0.023,0.024 0.042,0.048 0.021,0.026 0.038,0.052 0.034,0.056 0.016,0.028 0.015,0.029 0.014,0.029 0.013,0.03 0.012,0.03 0.011,0.03 0.01,0.031 0.009,0.031 0.008,0.032 0.007,0.032 0.006,0.032 0.005,0.032 0.004,0.032 0.004,0.065 10e-4,0.032 v 0.033 l -0.002,0.032 -0.002,0.032 -0.004,0.033 -0.004,0.032 -0.006,0.032 -0.006,0.032 -0.008,0.031 -0.009,0.031 -0.009,0.031 -0.011,0.031 -0.012,0.03 -0.012,0.03 -0.014,0.03 -0.014,0.029 -0.016,0.028 -0.016,0.028 -0.018,0.028 -0.018,0.027 -0.019,0.026 -0.02,0.026 -0.02,0.025 -0.022,0.024 -0.022,0.024 -0.023,0.022 -0.024,0.023 -0.025,0.021 -0.025,0.02 -0.025,0.02 -0.027,0.019 -0.027,0.018 -0.028,0.017 -0.028,0.016 -0.028,0.015 -0.029,0.015 -2.677,1.262 -0.03,0.014 -0.03,0.012 -0.031,0.012 -0.031,0.01 -0.031,0.01 L 7.293,14.97 7.261,14.978 7.229,14.984 7.197,14.989 7.165,14.994 7.132,14.997 7.099,14.999 7.067,15 H 7.034 L 7.001,14.999 6.969,14.997 6.936,14.993 6.904,14.989 6.871,14.984 6.839,14.977 6.808,14.97 6.776,14.961 6.745,14.952 6.714,14.941 6.683,14.93 6.653,14.917 6.623,14.904 6.594,14.889 6.565,14.874 6.537,14.858 6.509,14.84 6.482,14.822 6.455,14.803 6.429,14.783 6.404,14.762 6.379,14.741 6.356,14.719 6.332,14.695 6.31,14.672 6.289,14.647 6.268,14.622 6.248,14.596 6.229,14.569 6.211,14.542 6.193,14.514 6.177,14.486 6.162,14.457 6.147,14.428 6.134,14.398 6.121,14.368 6.11,14.337 6.099,14.306 6.09,14.275 6.081,14.243 6.074,14.212 6.067,14.18 6.062,14.147 6.058,14.115 6.054,14.082 6.052,14.05 6.051,14.017 v -0.033 l 10e-4,-0.032 0.002,-0.033 0.003,-0.033 0.005,-0.032 0.005,-0.032 0.006,-0.032 0.008,-0.032 0.008,-0.032 0.01,-0.031 0.01,-0.031 0.012,-0.031 0.012,-0.03 0.014,-0.03 1.262,-2.677 0.015,-0.029 0.015,-0.028 0.016,-0.028 0.017,-0.028 0.018,-0.027 0.019,-0.027 0.02,-0.025 0.02,-0.025 L 7.57,10.654 7.593,10.63 7.615,10.607 7.639,10.585 7.663,10.563 7.688,10.543 7.714,10.523 7.74,10.504 7.767,10.486 7.795,10.468 7.823,10.452 7.851,10.436 7.88,10.422 7.91,10.408 7.94,10.396 7.97,10.384 8.001,10.373 8.032,10.364 8.063,10.355 8.094,10.347 8.126,10.341 8.158,10.335 8.19,10.331 8.223,10.327 8.255,10.325 8.287,10.323 H 8.32 Z M 7.051,14 9.728,12.737 9.065,12.074 9.144,11.907 8.977,11.986 8.314,11.323 Z"
       style="fill:#303030;fill-opacity:1"
       id="path18" /><path
       d="M 15.536,4.101 8.314,11.323 9.728,12.737 16.95,5.515 Z"
       style="fill:#ffffff;fill-opacity:1"
       id="path20" /><path
       d="m 15.623,3.104 0.058,0.007 0.057,0.01 0.057,0.014 0.056,0.016 0.054,0.02 0.054,0.023 0.051,0.026 0.05,0.029 0.049,0.032 0.047,0.035 0.044,0.037 0.043,0.04 1.415,1.415 0.04,0.042 0.037,0.044 0.035,0.047 0.032,0.049 0.029,0.05 0.026,0.052 0.023,0.054 0.02,0.054 0.015,0.056 0.014,0.057 0.011,0.057 0.007,0.058 0.003,0.058 V 5.544 L 17.947,5.602 17.939,5.66 17.929,5.717 17.915,5.774 17.9,5.829 17.88,5.884 17.857,5.937 17.831,5.989 17.802,6.04 17.77,6.088 17.735,6.135 17.698,6.18 l -0.04,0.042 -7.223,7.222 -0.042,0.04 -0.045,0.038 -0.047,0.034 -0.048,0.032 -0.05,0.03 -0.052,0.026 -0.054,0.023 -0.055,0.02 -0.055,0.016 -0.057,0.014 -0.057,0.01 -0.058,0.007 -0.058,0.003 H 9.699 L 9.641,13.734 9.583,13.727 9.526,13.717 9.469,13.703 9.413,13.687 9.359,13.667 9.305,13.644 9.253,13.618 9.203,13.588 9.154,13.556 9.108,13.522 9.063,13.484 9.021,13.444 7.607,12.03 7.567,11.988 7.529,11.943 7.495,11.897 7.463,11.848 7.433,11.798 7.407,11.746 7.384,11.692 7.364,11.638 7.348,11.582 7.334,11.525 7.324,11.468 7.317,11.41 7.314,11.352 v -0.058 l 0.003,-0.058 0.007,-0.058 0.01,-0.057 0.014,-0.057 0.016,-0.055 0.02,-0.055 0.023,-0.054 0.026,-0.052 0.03,-0.05 0.032,-0.048 0.034,-0.047 0.038,-0.045 0.04,-0.042 7.222,-7.223 0.042,-0.04 0.045,-0.037 0.047,-0.035 0.048,-0.032 0.051,-0.029 0.052,-0.026 0.053,-0.023 0.055,-0.02 0.055,-0.016 0.057,-0.014 0.057,-0.01 0.058,-0.007 0.058,-0.003 h 0.058 l 0.057,0.003 z M 8.314,11.323 9.728,12.737 16.95,5.515 15.536,4.101 Z"
       style="fill:#303030;fill-opacity:1"
       id="path22" /></g><rect
     y="-15"
     x="-13"
     height="5"
     width="1"
     id="rect823"
     style="fill:#303030;fill-opacity:1;stroke:none;stroke-width:2;stroke-linecap:round;stroke-linejoin:round;stroke-miterlimit:4;stroke-dasharray:none;stroke-opacity:1;paint-order:normal"
     transform="scale(-1)" /></svg>
